X: 179
T: The Tossing of the Hay
N:"Moderate" "collected by F. O'Neill"
B:O'Neill's 179
Z:Transcribed by henrik.norbeck@mailbox.swipnet.se
M:2/4
L:1/8
K:G
D2|G>A Bc|dg fd|ec AF|G2 (3def|
gf eg|fg af|gf ed|g2 (3def|
gf eg|fg af|gf ed|g2 BA|
G>A Bc|dg fd|ec AF|G2||


